X: 47
T: I Hear the Sound of a Child Crying
N: Derived from pawnee47.krn
O: Oklahoma, U.S.A.
N: from Pawnee Music by Frances Densmore, 1926
Z: transcribed to **kern format by David Huron, August 2000
C: Skidi and Chaui Bands, 1919
L: 1/8
M: 3/4
Q: 1/4=88
K: Db clef=treble
%%linebreak <none>
D D [I:setbarnb 1]| 
(A> G) A A G D | 
D2A,< A, D D | 
(A> G) A A G D | 
D2A,< A, A, D[M:2/4] | 
D2D E[M:3/4] | 
D2A,2A, D[M:2/4] | 
D2D E[M:3/4] | 
D2A,2B, D | 
D2D2B, D | 
D2D2 :|]  



